X: 39142
T: Sweetest When She's Naked
R: waltz
M: 3/4
K: Aminor
A2 A2 e2|edcd e2|A2 A2 e2|GEDE G2|A2 c4|dcde g2|e3 dcd|e2 A4:|
A2 d2 d/e/f|d4 c2|e2 g3 a|gedega|gedega|gede g2|a4 g/a/c'|a2 g<eg<d|
c3 d e/d/c|d2 e2 g2|B2 d<BA>G|E2 G4|A2 c4|d>cdega|e3 dcd|e2 A4:|

